X:1
T: Bonnie Lass of Fisherrow
C:
R:Reel
Q: 232
K:C
M:4/4
L:1/8
|:A|GD cG Ac GE|CE GE D1/2D1/2D A2|GE Gc AF Ac|BG Bd c1/2c1/2c cA|
GD cG Ac GE|CE GE D1/2D1/2D A2|GE Gc AF Ac|BG Bd c1/2c1/2c cf|
ec gc eg ca|gc ec Bd df|ec gc eg ca|ge de c1/2c1/2c cf|
ec gc eg ca|gc ec Bd df|ec gc eg ca|ge de c1/2c1/2c c:|
